X: 1
T: Byrne's
R: hornpipe
M: 4/4
L: 1/8
K: Dmaj
|:AF|(3FEF (3GFG AFDA|dA (3Bcd ecAg|fdge fdec|(3dcB cd ecAG|
(3FEF (3GFG AFDA|dA (3Bcd ecAg|fdge fdec|dfec d2:|
|:cd|ecAc efge|afdf bgeg|afdf geaf|(3gfe fd ecAG|
(3FEF (3GFG AFDA|dA (3Bcd ecAg|fdge fdec|dfec d2:|


Tune 1143	Setting 14410

